X:1
T:Jesus Is Passing By
T:Jesus Is Passing By
T:John Robson Sweney
T:Eliza Edmunds Hewitt, 1890
T:Public Domain Courtesy of the Cyber Hymnal™
C:John Robson Sweney
Z:Public Domain
Z:Courtesy of the Cyber Hymnal™
%%score ( 1 2 ) ( 3 4 )
L:1/8
Q:1/4=92
M:6/8
K:Db
V:1 treble 
V:2 treble 
V:3 bass 
V:4 bass 
V:1
 [FA] | [DF]2 [DF] [DE]2 D | [DF]2 [EG] [FA]3 | [Fd]>[Ge][Fd] [FA]2 [DF] | [C-E]3 [CA]2 [CG] | %5
w: 1.~Come,|con- trite one, and|seek His grace,|Je- sus is pass- ing|by; * See|
w: 2.~Come,|hun- gry one, and|tell your need,|Je- sus is pass- ing|by; * The|
w: 3.~Come,|wea- ry one, and|find sweet rest,|Je- sus is pass- ing|by; * Come|
w: 4.~Come,|bur- dened one, bring|all your care,|Je- sus is pass- ing|by; * The|
 [DF]2 [DE] D2 [DF] | [FA]2 [GB] [Fd]2 [Fd] | (c>d)[Ec] [Ec]2 [DB] | ([CA-]3 !fermata![GA]2) z || %9
w: in His re- con-|cil- ing face, The|sun- * shine of the|sky. *|
w: Bread of Life your|soul will feed, And|ful- * ly sa- tis-|fy. *|
w: where the long- ing|heart is blessed, And|on * His bo- som|lie. *|
w: love that lis- tens|to your prayer Will|“no * good thing” de-|ny. *|
"^Refrain" [Fd]3- [Fd]2 [DF] | [CE]3- [CE]2 z | [EG]3- [EG]2 [CA] | [DF]3- [DF]2 z | %13
w: ||||
w: Pass- * ing|by, *|pass- * ing|by, *|
w: ||||
w: ||||
 [FA]>[FA][FA] [FA]2 [Fd] | [Fd]2 [Ec] [Ec]3 | [GA]>[GA][GA] [GA]2 [Ge] | [Fe]2 [Fd] [Fd]3 | %17
w: ||||
w: Has- ten to meet Him|on the way;|Je- sus is pass- ing|by to- day;|
w: ||||
w: ||||
 ([Fd]4 [DF])[GB] | [FA]3- [FA]2 z | G4 (z C)E | D3- [A,D]2 |] %21
w: ||||
w: Pass- * ing|by, *|pass- * ing|* by.|
w: ||||
w: ||||
V:2
 x | x5 D | x6 | x6 | x6 | x3 D2 x | x6 | E2 x4 | x6 || x6 | x6 | x6 | x6 | x6 | x6 | x6 | x6 | %17
 x6 | x6 | C2 C C2 x2 | A,2 B, x2 |] %21
V:3
 [D,A,] | [D,A,]2 [D,A,] [D,G,]2 [D,F,] | [D,A,]2 [D,D] [D,D]3 | %3
w: ~|~ ~ ~ ~|~ ~ ~|
 [D,A,]>[D,A,][D,A,] [D,D]2 [D,A,] | [A,,-A,]3 [A,,E,]2 [A,,A,] | [D,A,]2 [D,G,] [D,F,]2 [D,A,] | %6
w: ~ ~ ~ ~ ~|~ ~ ~|~ ~ ~ ~|
 [D,D]2 [D,D] [D,A,]2 [D,A,] | (A,>B,)[E,A,] [E,A,]2 [E,=G,] | ([A,,-A,]3 !fermata![A,,C]2) z || %9
w: ~ ~ ~ ~|~ * ~ ~ ~|Pass- *|
 [D,A,]2 [D,A,] [D,A,]2 z | [A,,A,]2 [A,,A,] [A,,A,]2 z | [A,C]2 [A,C] [A,C]2 z | %12
w: ing by, pass-|ing by, Pass-|ing by, pass-|
 [D,A,]2 [D,A,] [D,A,]2 z | [D,D]>[D,D][D,D] [D,D]2 [D,A,] | A,2 A, A,3 | %15
w: ing by, ~|~ ~ ~ ~ ~|~ ~ ~|
 [A,C]>[A,C][A,C] [A,C]2 [A,C] | [D,D]2 [D,A,] [D,A,]3 | [D,A,]2 [D,A,] [D,A,]2 z | %18
w: ~ ~ ~ ~ ~|~ ~ Pass-|ing by, pass-|
 [D,D]2 [D,D] [D,D]2 z | A,2 [A,,E,] [A,,E,]2 z x | [D,F,]2 [D,G,] [D,F,]2 |] %21
w: ing by, Pass-|ing by, pass-|ing by. *|
V:4
 x | x6 | x6 | x6 | x6 | x6 | x6 | E,2 x4 | x6 || x6 | x6 | x6 | x6 | x6 | A,2 A, A,3 | x6 | x6 | %17
 x6 | x6 | A,2 x5 | x5 |] %21

